X:3467
T:Cotillion á Huit
M:6/8
L:1/8
C:Trad.
R:Jig
K:G
D|GBd gdB|{d}cBc edc|GBd gdB|cAF F2D|!
GBd gdB|c2 e dBd|(3gag e dBG|cAF G2:|!
f|g2 d edc|BGB dfa|g2 d edc|BcA A2 f|!
g2 d edc|BGB dfa|(3gag e dBG|cAF G2:|


